X: 297
T: Xiu huadang
L: 1/8
M: 2/4
K: C
G A,G,2 [I:setbarnb 1]| 
CC3 | 
D2E C | 
D CD2 | 
G, A,G,2 | 
D ED2 | 
A, A, C A, | 
G,4 | 
G, A,G,2 | 
CC3 | 
D2E C | 
D CD2 | 
E DE2 | 
C A,G,2 | 
C C C A, | 
G, A,G,2 | 
G, A,G,2 | 
D G E D | 
C C C E | 
D2D/ C/ A, | 
G,4 |]

@@@ Tune index: 9171
